;FLAVOR:Marlin
;TIME:19293
;Filament used: 15.1841m
;Layer height: 0.2
;MINX:4.034
;MINY:7.41
;MINZ:0.2
;MAXX:214.181
;MAXY:216.28
;MAXZ:19.8
;TARGET_MACHINE.NAME:Creality Ender-3
;Generated with Cura_SteamEngine 5.6.0
M140 S60
M105
M190 S60
M104 S220
M105
M109 S220
M82 ;absolute extrusion mode
; Ender 3 Custom Start G-code
G92 E0 ; Reset Extruder
G28 ; Home all axes
G1 Z2.0 F3000 ; Move Z Axis up little to prevent scratching of Heat Bed
G1 X0.1 Y20 Z0.3 F5000.0 ; Move to start position
G1 X0.1 Y200.0 Z0.3 F1500.0 E15 ; Draw the first line
G1 X0.4 Y200.0 Z0.3 F5000.0 ; Move to side a little
G1 X0.4 Y20 Z0.3 F1500.0 E30 ; Draw the second line
G92 E0 ; Reset Extruder
G1 Z2.0 F3000 ; Move Z Axis up little to prevent scratching of Heat Bed
G1 X5 Y20 Z0.3 F5000.0 ; Move over to prevent blob squish
G92 E0
G92 E0
G1 F2700 E-5
;LAYER_COUNT:87
;LAYER:0
M107
G0 F6600 X26.974 Y23.792 Z0.2
;TYPE:SKIRT
G1 F2700 E0
G1 F1320 X36.201 Y14.544 E0.4345
G1 X38.31 Y13.145 E0.51868
G1 X41.206 Y12.222 E0.61977
G1 X43.025 Y12.276 E0.6803
G1 X45.592 Y9.711 E0.801
G1 X47.6 Y8.37 E0.88131
G1 X50.611 Y7.41 E0.98642
G1 X53.303 Y7.529 E1.07605
G1 X55.45 Y8.076 E1.14974
G1 X56.8 Y8.72 E1.19948
G1 X58.655 Y10.163 E1.27765
G1 X63.349 Y14.838 E1.498
G1 X64.743 Y16.94 E1.58189
G1 X65.688 Y19.914 E1.68568
G1 X65.569 Y22.48 E1.77111
G1 X64.893 Y25.215 E1.86482
G1 X63.428 Y27.436 E1.95331
G1 X62.652 Y28.222 E1.99005
G1 X193.384 Y158.918 E8.13843
G1 X194.121 Y158.183 E8.17305
G1 X196.173 Y156.836 E8.25469
G1 X199.121 Y155.9 E8.35757
G1 X201.798 Y156.019 E8.44669
G1 X204.459 Y156.697 E8.53803
G1 X206.716 Y158.202 E8.62825
G1 X211.838 Y163.324 E8.86918
G1 X213.237 Y165.433 E8.95335
G1 X214.181 Y168.401 E9.05694
G1 X214.062 Y171.036 E9.14467
G1 X213.397 Y173.447 E9.22785
G1 X212.99 Y174.417 E9.26284
G1 X211.453 Y176.406 E9.34645
G1 X209.38 Y178.508 E9.44464
G1 X209.223 Y180.705 E9.5179
G1 X208.712 Y182.526 E9.5808
G1 X208.197 Y183.793 E9.62629
G1 X206.603 Y185.817 E9.71198
G1 X197.409 Y195.027 E10.14481
G1 X195.297 Y196.429 E10.22913
G1 X192.345 Y197.37 E10.33218
G1 X189.701 Y197.253 E10.42021
G1 X189.417 Y197.189 E10.42989
G1 X189.15 Y197.459 E10.44252
G1 X189.185 Y198.132 E10.46493
G1 X188.827 Y200.322 E10.53874
G1 X188.288 Y202.191 E10.60344
G1 X188.12 Y202.564 E10.61704
G1 X186.612 Y204.503 E10.69874
G1 X177.21 Y213.945 E11.14192
G1 X175.11 Y215.339 E11.22576
G1 X172.158 Y216.28 E11.32881
G1 X169.468 Y216.161 E11.41837
G1 X167.321 Y215.614 E11.49206
G1 X165.971 Y214.97 E11.54181
G1 X164.116 Y213.527 E11.61997
G1 X6.377 Y55.808 E19.03906
G1 X4.975 Y53.696 E19.12338
G1 X4.034 Y50.744 E19.22643
G1 X4.153 Y48.054 E19.31598
G1 X4.7 Y45.907 E19.38968
G1 X5.344 Y44.557 E19.43942
G1 X6.787 Y42.702 E19.51759
G1 X16.015 Y33.454 E19.95212
G1 X18.124 Y32.055 E20.03629
G1 X21.019 Y31.132 E20.13736
G1 X22.838 Y31.185 E20.19788
G1 X24.315 Y29.71 E20.26731
G1 X24.34 Y29.144 E20.28615
G1 X24.887 Y26.997 E20.35984
G1 X25.531 Y25.647 E20.40959
G1 X25.992 Y25.054 E20.43457
G0 F1188 X26.974 Y23.792
G0 F6600 X27.29 Y24.038
G1 F1320 X36.458 Y14.853 E20.86621
G1 X38.483 Y13.51 E20.94703
G1 X41.262 Y12.624 E21.04404
G1 X43.186 Y12.681 E21.10806
G1 X45.847 Y10.022 E21.23318
G1 X47.777 Y8.733 E21.31037
G1 X50.663 Y7.813 E21.41112
G1 X53.244 Y7.927 E21.49705
G1 X55.316 Y8.455 E21.56817
G1 X56.586 Y9.061 E21.61497
G1 X58.409 Y10.479 E21.69178
G1 X63.038 Y15.092 E21.90914
G1 X64.379 Y17.114 E21.98984
G1 X65.285 Y19.965 E22.08934
G1 X65.171 Y22.426 E22.17128
G1 X64.522 Y25.052 E22.26125
G1 X63.117 Y27.182 E22.34612
G1 X62.088 Y28.224 E22.39482
G1 X193.383 Y159.483 E28.56969
G1 X194.375 Y158.494 E28.61628
G1 X196.345 Y157.201 E28.69466
G1 X199.172 Y156.303 E28.79331
G1 X201.739 Y156.417 E28.87878
G1 X204.294 Y157.068 E28.96647
G1 X206.461 Y158.513 E29.0531
G1 X211.529 Y163.581 E29.29148
G1 X212.873 Y165.607 E29.37235
G1 X213.778 Y168.452 E29.47164
G1 X213.664 Y170.973 E29.55558
G1 X213.028 Y173.292 E29.63556
G1 X212.642 Y174.212 E29.66874
G1 X211.136 Y176.161 E29.75066
G1 X208.992 Y178.332 E29.85215
G1 X208.827 Y180.637 E29.92901
G1 X208.341 Y182.375 E29.98903
G1 X207.846 Y183.593 E30.03276
G1 X206.32 Y185.534 E30.11488
G1 X197.152 Y194.718 E30.54649
G1 X195.123 Y196.065 E30.62749
G1 X192.293 Y196.967 E30.72628
G1 X189.719 Y196.853 E30.81198
G1 X189.293 Y196.746 E30.82659
G1 X188.742 Y197.302 E30.85262
G1 X188.784 Y198.107 E30.87943
G1 X188.442 Y200.212 E30.95037
G1 X187.923 Y202.026 E31.01312
G1 X187.773 Y202.358 E31.02524
G1 X186.296 Y204.258 E31.10528
G1 X176.956 Y213.634 E31.54545
G1 X174.936 Y214.975 E31.62609
G1 X172.106 Y215.877 E31.72489
G1 X169.527 Y215.763 E31.81075
G1 X167.455 Y215.235 E31.88187
G1 X166.185 Y214.629 E31.92867
G1 X164.362 Y213.211 E32.00548
G1 X6.686 Y55.551 E39.4217
G1 X5.339 Y53.522 E39.50271
G1 X4.437 Y50.692 E39.6015
G1 X4.551 Y48.113 E39.68736
G1 X5.079 Y46.041 E39.75848
G1 X5.685 Y44.771 E39.80528
G1 X7.103 Y42.948 E39.8821
G1 X16.272 Y33.763 E40.31375
G1 X18.298 Y32.419 E40.39462
G1 X21.074 Y31.534 E40.49153
G1 X22.999 Y31.59 E40.55558
G1 X24.708 Y29.883 E40.63592
G1 X24.738 Y29.203 E40.65856
G1 X25.266 Y27.131 E40.72967
G1 X25.872 Y25.861 E40.77648
G1 X26.308 Y25.301 E40.80008
G0 F1188 X27.29 Y24.038
G0 F6600 X27.606 Y24.284
G1 F1320 X36.715 Y15.162 E41.22885
G1 X38.657 Y13.874 E41.30635
G1 X41.317 Y13.026 E41.39921
G1 X43.347 Y13.086 E41.46676
G1 X46.102 Y10.333 E41.5963
G1 X47.953 Y9.097 E41.67033
G1 X50.716 Y8.216 E41.76678
G1 X53.185 Y8.325 E41.84898
G1 X55.182 Y8.834 E41.91753
G1 X56.372 Y9.402 E41.96138
G1 X58.163 Y10.795 E42.03685
G1 X62.727 Y15.346 E42.25122
G1 X64.015 Y17.288 E42.32873
G1 X64.882 Y20.016 E42.42393
G1 X64.773 Y22.372 E42.50238
G1 X64.151 Y24.889 E42.58861
G1 X62.806 Y26.928 E42.66986
G1 X61.524 Y28.226 E42.73053
G1 X193.383 Y160.049 E48.93193
G1 X194.63 Y158.805 E48.99051
G1 X196.519 Y157.565 E49.06567
G1 X199.223 Y156.706 E49.16003
G1 X201.68 Y156.815 E49.24184
G1 X204.129 Y157.439 E49.32589
G1 X206.206 Y158.824 E49.40892
G1 X211.22 Y163.838 E49.64477
G1 X212.509 Y165.781 E49.72232
G1 X213.375 Y168.503 E49.81732
G1 X213.266 Y170.912 E49.89753
G1 X212.659 Y173.137 E49.97424
G1 X212.294 Y174.007 E50.00562
G1 X210.819 Y175.916 E50.08586
G1 X208.581 Y178.179 E50.19171
G1 X208.593 Y178.329 E50.19672
G1 X208.431 Y180.57 E50.27145
G1 X207.97 Y182.225 E50.32859
G1 X207.497 Y183.39 E50.37041
G1 X206.037 Y185.251 E50.44908
G1 X196.895 Y194.409 E50.87947
G1 X194.95 Y195.7 E50.95712
G1 X192.24 Y196.564 E51.05172
G1 X189.776 Y196.455 E51.13375
G1 X189.17 Y196.302 E51.15454
G1 X188.334 Y197.147 E51.19408
G1 X188.383 Y198.082 E51.22522
G1 X188.057 Y200.102 E51.29327
G1 X187.538 Y201.916 E51.35603
G1 X187.429 Y202.149 E51.36458
G1 X185.98 Y204.013 E51.44311
G1 X176.702 Y213.323 E51.88027
G1 X174.763 Y214.61 E51.95768
G1 X172.053 Y215.474 E52.05228
G1 X169.586 Y215.365 E52.13441
G1 X167.589 Y214.856 E52.20296
G1 X166.399 Y214.288 E52.24681
G1 X164.608 Y212.895 E52.32228
G1 X6.995 Y55.294 E59.73563
G1 X5.704 Y53.349 E59.81327
G1 X4.84 Y50.639 E59.90788
G1 X4.949 Y48.172 E59.99001
G1 X5.458 Y46.175 E60.05856
G1 X6.026 Y44.985 E60.10241
G1 X7.419 Y43.194 E60.17788
G1 X16.529 Y34.072 E60.60667
G1 X18.472 Y32.783 E60.68422
G1 X21.129 Y31.936 E60.77697
G1 X23.16 Y31.995 E60.84455
G1 X25.101 Y30.056 E60.93581
G1 X25.136 Y29.262 E60.96224
G1 X25.645 Y27.265 E61.03078
G1 X26.213 Y26.075 E61.07464
G1 X26.624 Y25.547 E61.0969
G0 F1188 X27.606 Y24.284
G0 F6600 X27.922 Y24.53
G1 F1320 X36.972 Y15.471 E61.52279
G1 X38.831 Y14.238 E61.59699
G1 X41.372 Y13.428 E61.68569
G1 X43.508 Y13.491 E61.75676
G1 X46.357 Y10.644 E61.89073
G1 X48.13 Y9.46 E61.96164
G1 X50.768 Y8.619 E62.05373
G1 X53.126 Y8.723 E62.13223
G1 X55.048 Y9.213 E62.1982
G1 X56.158 Y9.743 E62.23911
G1 X57.917 Y11.111 E62.31323
G1 X62.418 Y15.603 E62.52473
G1 X63.651 Y17.462 E62.59892
G1 X64.479 Y20.067 E62.68984
G1 X64.375 Y22.318 E62.76479
G1 X63.78 Y24.726 E62.84729
G1 X62.495 Y26.674 E62.9249
G1 X60.96 Y28.228 E62.99755
G1 X193.382 Y160.614 E69.22543
G1 X194.884 Y159.116 E69.29599
G1 X196.691 Y157.93 E69.36788
G1 X199.274 Y157.109 E69.45802
G1 X201.621 Y157.213 E69.53616
G1 X203.964 Y157.81 E69.61658
G1 X205.951 Y159.135 E69.69601
G1 X210.911 Y164.095 E69.92932
G1 X212.145 Y165.955 E70.00356
G1 X212.972 Y168.554 E70.09427
G1 X212.868 Y170.851 E70.17075
G1 X212.29 Y172.982 E70.24419
G1 X211.946 Y173.802 E70.27376
G1 X210.502 Y175.671 E70.35232
G1 X208.156 Y178.039 E70.46318
G1 X208.194 Y178.3 E70.47196
G1 X208.035 Y180.499 E70.54529
G1 X207.599 Y182.075 E70.59967
G1 X207.148 Y183.187 E70.63959
G1 X205.754 Y184.968 E70.71481
G1 X196.638 Y194.1 E71.14397
G1 X194.776 Y195.336 E71.21831
G1 X192.188 Y196.161 E71.30865
G1 X189.833 Y196.057 E71.38706
G1 X189.047 Y195.858 E71.41402
G1 X187.926 Y196.992 E71.46706
G1 X187.982 Y198.058 E71.50256
G1 X187.672 Y199.992 E71.56771
G1 X187.153 Y201.806 E71.63046
G1 X187.085 Y201.94 E71.63546
G1 X185.664 Y203.768 E71.71247
G1 X176.448 Y213.012 E72.14662
G1 X174.589 Y214.246 E72.22083
G1 X172.001 Y215.071 E72.31118
G1 X169.645 Y214.967 E72.38962
G1 X167.723 Y214.477 E72.45559
G1 X166.613 Y213.947 E72.4965
G1 X164.854 Y212.579 E72.57061
G1 X7.304 Y55.037 E79.98109
G1 X6.068 Y53.175 E80.05543
G1 X5.243 Y50.587 E80.14577
G1 X5.347 Y48.231 E80.22421
G1 X5.837 Y46.309 E80.29018
G1 X6.367 Y45.199 E80.33109
G1 X7.735 Y43.44 E80.40521
G1 X16.786 Y34.381 E80.83113
G1 X18.646 Y33.147 E80.90537
G1 X21.184 Y32.338 E80.99397
G1 X23.321 Y32.4 E81.06507
G1 X25.494 Y30.229 E81.16724
G1 X25.534 Y29.321 E81.19747
G1 X26.024 Y27.399 E81.26344
G1 X26.554 Y26.289 E81.30435
G1 X26.94 Y25.793 E81.32525
G0 F1188 X27.922 Y24.53
G0 F6600 X28.238 Y24.776
G1 F1320 X37.229 Y15.78 E81.74828
G1 X39.005 Y14.602 E81.81916
G1 X41.427 Y13.83 E81.90371
G1 X43.509 Y13.891 E81.97299
G1 X43.65 Y13.914 E81.97774
G1 X46.612 Y10.955 E82.11699
G1 X48.307 Y9.823 E82.18478
G1 X50.82 Y9.022 E82.27251
G1 X53.067 Y9.121 E82.34732
G1 X54.914 Y9.592 E82.41072
G1 X55.944 Y10.084 E82.44868
G1 X57.671 Y11.427 E82.52145
G1 X62.109 Y15.86 E82.73008
G1 X63.287 Y17.636 E82.80096
G1 X64.076 Y20.118 E82.88758
G1 X63.977 Y22.264 E82.95904
G1 X63.409 Y24.563 E83.0378
G1 X62.184 Y26.42 E83.11179
G1 X60.396 Y28.23 E83.19641
G1 X193.382 Y161.18 E89.45082
G1 X195.139 Y159.427 E89.53337
G1 X196.865 Y158.294 E89.60204
G1 X199.326 Y157.512 E89.68793
G1 X201.562 Y157.611 E89.76237
G1 X203.799 Y158.181 E89.83915
G1 X205.696 Y159.446 E89.91499
G1 X210.602 Y164.352 E90.14575
G1 X211.781 Y166.129 E90.21668
G1 X212.569 Y168.605 E90.3031
G1 X212.47 Y170.792 E90.37591
G1 X211.921 Y172.827 E90.44602
G1 X211.598 Y173.597 E90.47379
G1 X210.185 Y175.426 E90.55066
G1 X207.72 Y177.91 E90.66706
G1 X207.795 Y178.271 E90.67932
G1 X207.639 Y180.428 E90.75125
G1 X207.213 Y181.968 E90.80439
G1 X206.799 Y182.985 E90.84091
G1 X205.471 Y184.685 E90.91266
G1 X196.381 Y193.791 E91.34061
G1 X194.602 Y194.972 E91.41163
G1 X192.136 Y195.758 E91.49771
G1 X189.892 Y195.659 E91.57242
G1 X188.924 Y195.413 E91.60564
G1 X187.518 Y196.836 E91.67217
G1 X187.581 Y198.035 E91.71211
G1 X187.277 Y199.929 E91.77591
G1 X186.769 Y201.695 E91.83703
G1 X185.348 Y203.523 E91.91404
G1 X176.194 Y212.701 E92.34518
G1 X174.415 Y213.882 E92.4162
G1 X171.949 Y214.668 E92.50228
G1 X169.704 Y214.569 E92.57703
G1 X167.857 Y214.098 E92.64042
G1 X166.827 Y213.606 E92.67839
G1 X165.1 Y212.263 E92.75115
G1 X7.613 Y54.78 E100.15876
G1 X6.432 Y53.001 E100.22979
G1 X5.646 Y50.535 E100.31587
G1 X5.745 Y48.29 E100.39061
G1 X6.216 Y46.443 E100.45401
G1 X6.708 Y45.413 E100.49198
G1 X8.051 Y43.686 E100.56474
G1 X17.043 Y34.69 E100.98779
G1 X18.82 Y33.511 E101.05872
G1 X21.239 Y32.74 E101.14316
G1 X23.482 Y32.805 E101.2178
G1 X25.887 Y30.402 E101.33087
G1 X25.932 Y29.38 E101.3649
G1 X26.403 Y27.533 E101.4283
G1 X26.895 Y26.503 E101.46626
G1 X27.256 Y26.039 E101.48581
G0 F1188 X28.238 Y24.776
G0 F6600 X28.554 Y25.022
G1 F1320 X37.486 Y16.089 E101.90597
G1 X39.179 Y14.966 E101.97354
G1 X41.482 Y14.232 E102.05394
G1 X43.497 Y14.291 E102.12099
G1 X43.78 Y14.35 E102.1306
G1 X46.867 Y11.266 E102.27573
G1 X48.483 Y10.187 E102.34036
G1 X50.873 Y9.425 E102.4238
G1 X53.008 Y9.519 E102.49487
G1 X54.78 Y9.971 E102.5557
G1 X55.73 Y10.425 E102.59072
G1 X57.425 Y11.743 E102.66213
G1 X61.8 Y16.117 E102.8679
G1 X62.923 Y17.81 E102.93547
G1 X63.673 Y20.169 E103.0178
G1 X63.579 Y22.21 E103.08575
G1 X63.038 Y24.4 E103.16078
G1 X61.873 Y26.166 E103.23115
G1 X59.832 Y28.232 E103.32774
G1 X193.381 Y161.745 E109.60863
G1 X195.393 Y159.738 E109.70315
G1 X197.037 Y158.659 E109.76856
G1 X199.378 Y157.915 E109.85026
G1 X201.503 Y158.009 E109.921
G1 X203.634 Y158.552 E109.99414
G1 X205.441 Y159.757 E110.06638
G1 X210.293 Y164.609 E110.29461
G1 X211.417 Y166.303 E110.36222
G1 X212.166 Y168.656 E110.44435
G1 X212.072 Y170.733 E110.51351
G1 X211.552 Y172.672 E110.58028
G1 X211.25 Y173.392 E110.60624
G1 X209.868 Y175.181 E110.68143
G1 X207.272 Y177.793 E110.80392
G1 X207.396 Y178.242 E110.81941
G1 X207.243 Y180.357 E110.88994
G1 X206.827 Y181.861 E110.94184
G1 X206.45 Y182.783 E110.97497
G1 X205.188 Y184.402 E111.04325
G1 X196.124 Y193.482 E111.46997
G1 X194.429 Y194.607 E111.53763
G1 X192.083 Y195.355 E111.61953
G1 X189.95 Y195.261 E111.69054
G1 X188.8 Y194.969 E111.73
G1 X187.066 Y196.724 E111.81206
G1 X187.126 Y196.991 E111.82116
G1 X187.18 Y198.012 E111.85517
G1 X186.882 Y199.866 E111.91762
G1 X186.407 Y201.509 E111.97451
G1 X185.032 Y203.277 E112.049
G1 X175.937 Y212.392 E112.47727
G1 X174.242 Y213.517 E112.54494
G1 X171.896 Y214.265 E112.62684
G1 X169.763 Y214.171 E112.69785
G1 X167.991 Y213.719 E112.75867
G1 X167.041 Y213.265 E112.79369
G1 X165.346 Y211.947 E112.86511
G1 X7.922 Y54.523 E120.26985
G1 X6.797 Y52.828 E120.33751
G1 X6.049 Y50.482 E120.41941
G1 X6.143 Y48.349 E120.49042
G1 X6.595 Y46.577 E120.55125
G1 X7.049 Y45.627 E120.58627
G1 X8.367 Y43.932 E120.65768
G1 X17.3 Y34.999 E121.07786
G1 X18.994 Y33.875 E121.14548
G1 X21.294 Y33.142 E121.22577
G1 X23.326 Y33.201 E121.29338
G1 X23.594 Y33.259 E121.3025
G1 X26.28 Y30.575 E121.4288
G1 X26.33 Y29.439 E121.46662
G1 X26.782 Y27.667 E121.52744
G1 X27.236 Y26.717 E121.56246
G1 X27.572 Y26.285 E121.58066
G0 F1188 X28.554 Y25.022
G0 F6600 X28.837 Y25.305
G1 F1320 X37.743 Y16.398 E121.9996
G1 X39.353 Y15.33 E122.06386
G1 X41.537 Y14.634 E122.1401
G1 X43.485 Y14.691 E122.20492
G1 X43.904 Y14.792 E122.21925
G1 X47.122 Y11.577 E122.37054
G1 X48.66 Y10.55 E122.43205
G1 X50.925 Y9.828 E122.51112
G1 X52.949 Y9.917 E122.57851
G1 X54.646 Y10.35 E122.63676
G1 X55.519 Y10.767 E122.66894
G1 X57.142 Y12.026 E122.73726
G1 X61.491 Y16.374 E122.9418
G1 X62.559 Y17.984 E123.00606
G1 X63.27 Y20.22 E123.08409
G1 X63.181 Y22.156 E123.14855
G1 X62.667 Y24.237 E123.21985
G1 X61.562 Y25.912 E123.28659
G1 X59.268 Y28.234 E123.39515
G1 X193.38 Y162.31 E129.70252
G1 X195.645 Y160.051 E129.80892
G1 X197.211 Y159.023 E129.87123
G1 X199.43 Y158.318 E129.94867
G1 X201.444 Y158.407 E130.01572
G1 X203.469 Y158.923 E130.08522
G1 X205.186 Y160.068 E130.15386
G1 X209.984 Y164.866 E130.37955
G1 X211.053 Y166.477 E130.44385
G1 X211.763 Y168.707 E130.52169
G1 X211.674 Y170.676 E130.58725
G1 X211.183 Y172.517 E130.65062
G1 X210.901 Y173.19 E130.67489
G1 X209.584 Y174.899 E130.74665
G1 X206.825 Y177.675 E130.87682
G1 X206.992 Y178.283 E130.8978
G1 X206.847 Y180.286 E130.96459
G1 X206.441 Y181.754 E131.01525
G1 X206.1 Y182.58 E131.04497
G1 X204.872 Y184.156 E131.11142
G1 X195.867 Y193.173 E131.53527
G1 X194.255 Y194.243 E131.59962
G1 X192.031 Y194.952 E131.67726
G1 X190.009 Y194.863 E131.74458
G1 X188.677 Y194.524 E131.79029
G1 X186.622 Y196.604 E131.88754
G1 X186.727 Y197.012 E131.90156
G1 X186.779 Y197.988 E131.93407
G1 X186.487 Y199.802 E131.99518
G1 X186.044 Y201.323 E132.04787
G1 X184.716 Y203.031 E132.11983
G1 X175.68 Y212.083 E132.54523
G1 X174.068 Y213.153 E132.60958
G1 X171.844 Y213.862 E132.68722
G1 X169.822 Y213.773 E132.75453
G1 X168.125 Y213.34 E132.81279
G1 X167.252 Y212.923 E132.84496
G1 X165.629 Y211.664 E132.91328
G1 X8.231 Y54.266 E140.3168
G1 X7.161 Y52.654 E140.38115
G1 X6.452 Y50.43 E140.45879
G1 X6.541 Y48.408 E140.52611
G1 X6.974 Y46.711 E140.58436
